assets/icons/package/_.svg

<?xml version="1.0" encoding="UTF-8" standalone="no"?>
<svg viewBox="0 0 24 24" height="24" id="svg7384" version="1.1" width="24" sodipodi:docname="package.svg" inkscape:version="1.1 (ce6663b3b7, 2021-05-25)"
   xmlns:inkscape="http://www.inkscape.org/namespaces/inkscape"
   xmlns:sodipodi="http://sodipodi.sourceforge.net/DTD/sodipodi-0.dtd"
   xmlns="http://www.w3.org/2000/svg"
   xmlns:svg="http://www.w3.org/2000/svg"
   xmlns:rdf="http://www.w3.org/1999/02/22-rdf-syntax-ns#"
   xmlns:cc="http://creativecommons.org/ns#"
   xmlns:dc="http://purl.org/dc/elements/1.1/">
   <sodipodi:namedview id="namedview25" pagecolor="#ffffff" bordercolor="#666666" borderopacity="1.0" inkscape:pageshadow="2" inkscape:pageopacity="0.0" inkscape:pagecheckerboard="0" showgrid="true" inkscape:zoom="28" inkscape:cx="9.8035714" inkscape:cy="12.625" inkscape:window-width="1920" inkscape:window-height="1016" inkscape:window-x="0" inkscape:window-y="27" inkscape:window-maximized="1" inkscape:current-layer="svg7384" inkscape:snap-page="true">
      <inkscape:grid type="xygrid" id="grid829" />
      <inkscape:grid type="xygrid" id="grid831" dotted="true" spacingx="0.5" spacingy="0.5" empspacing="10" />
   </sodipodi:namedview>
   <metadata id="metadata20854">
      <rdf:RDF>
         <cc:Work rdf:about="">
            <dc:format>image/svg+xml</dc:format>
            <dc:type rdf:resource="http://purl.org/dc/dcmitype/StillImage" />
         </cc:Work>
      </rdf:RDF>
   </metadata>
   <defs id="defs7386">
      <linearGradient id="linearGradient5606" inkscape:swatch="solid">
         <stop id="stop5608" offset="0" style="stop-color:#000000;stop-opacity:1;" />
      </linearGradient>
      <linearGradient id="linearGradient4526" inkscape:swatch="solid">
         <stop id="stop4528" offset="0" style="stop-color:#ffffff;stop-opacity:1;" />
      </linearGradient>
      <linearGradient id="linearGradient3600-4" inkscape:swatch="gradient">
         <stop id="stop3602-7" offset="0" style="stop-color:#f4f4f4;stop-opacity:1" />
         <stop id="stop3604-6" offset="1" style="stop-color:#dbdbdb;stop-opacity:1" />
      </linearGradient>
   </defs>
   <path id="path866" style="color:#000000;fill:#808080;-inkscape-stroke:none;fill-opacity:1" d="M 6.7871094 3 C 6.1101636 3.0055872 5.5365074 3.0481526 5.0273438 3.3027344 C 4.6879015 3.4724556 4.3973385 3.765168 4.2304688 4.140625 C 4.063599 4.516082 4 4.9583339 4 5.5 L 4 18.5 C 4 19.041666 4.0635991 19.483918 4.2304688 19.859375 C 4.3973385 20.234832 4.6879015 20.527544 5.0273438 20.697266 C 5.7062285 21.036708 6.500001 21 7.5 21 L 15.5 21 C 16.499999 21 17.293771 21.03671 17.972656 20.697266 C 18.312099 20.527544 18.602661 20.234832 18.769531 19.859375 C 18.936401 19.483918 19 19.041666 19 18.5 L 19 5.5 C 19 4.9583339 18.9364 4.516082 18.769531 4.140625 C 18.602661 3.765168 18.312099 3.4724556 17.972656 3.3027344 C 17.293771 2.963292 16.499999 3 15.5 3 L 7.5 3 C 7.2500003 3 7.012758 2.9981376 6.7871094 3 z M 7.5 4 L 11 4 L 11 20 L 7.5 20 C 6.500001 20 5.7937706 19.96329 5.4726562 19.802734 C 5.3120991 19.722454 5.2276612 19.640167 5.1445312 19.453125 C 5.0614013 19.266083 5 18.958333 5 18.5 L 5 5.5 C 5 5.0416671 5.061401 4.7339174 5.1445312 4.546875 C 5.2276612 4.3598326 5.3120991 4.2775442 5.4726562 4.1972656 C 5.7937705 4.0367085 6.500001 4 7.5 4 z M 12 4 L 15.5 4 C 16.499999 4 17.20623 4.036708 17.527344 4.1972656 C 17.687901 4.2775446 17.772339 4.3598326 17.855469 4.546875 C 17.938599 4.7339174 18 5.0416671 18 5.5 L 18 18.5 C 18 18.958333 17.9386 19.266083 17.855469 19.453125 C 17.772339 19.640167 17.687901 19.722456 17.527344 19.802734 C 17.20623 19.963291 16.499999 20 15.5 20 L 12 20 L 12 4 z M 6.5 15 C 6.223 15 6 15.223 6 15.5 L 6 18.5 C 6 18.777 6.223 19 6.5 19 L 9.5 19 C 9.777 19 10 18.777 10 18.5 L 10 15.5 C 10 15.223 9.777 15 9.5 15 L 6.5 15 z M 13.5 16 C 13.223 16 13 16.223 13 16.5 C 13 16.777 13.223 17 13.5 17 L 16.5 17 C 16.777 17 17 16.777 17 16.5 C 17 16.223 16.777 16 16.5 16 L 13.5 16 z M 13.5 18 C 13.223 18 13 18.223 13 18.5 C 13 18.777 13.223 19 13.5 19 L 16.5 19 C 16.777 19 17 18.777 17 18.5 C 17 18.223 16.777 18 16.5 18 L 13.5 18 z " />
</svg>

<svg height="24" width="24" xmlns="http://www.w3.org/2000/svg"><path style="color:#000;fill:gray;-inkscape-stroke:none;fill-opacity:1" d="M6.787 3c-.677.006-1.25.048-1.76.303-.34.17-.63.462-.797.838C4.064 4.516 4 4.958 4 5.5v13c0 .542.064.984.23 1.36.167.375.458.668.797.837.68.34 1.473.303 2.473.303h8c1 0 1.794.037 2.473-.303.34-.17.63-.462.797-.838.166-.375.23-.817.23-1.359v-13c0-.542-.064-.984-.23-1.36a1.72 1.72 0 0 0-.797-.837C17.293 2.963 16.5 3 15.5 3h-8c-.25 0-.487-.002-.713 0zM7.5 4H11v16H7.5c-1 0-1.706-.037-2.027-.197a.615.615 0 0 1-.328-.35C5.06 19.266 5 18.958 5 18.5v-13c0-.458.061-.766.145-.953a.615.615 0 0 1 .328-.35C5.793 4.037 6.5 4 7.5 4zM12 4h3.5c1 0 1.706.037 2.027.197.16.08.245.163.328.35.084.187.145.495.145.953v13c0 .458-.061.766-.145.953a.615.615 0 0 1-.328.35c-.32.16-1.027.197-2.027.197H12V4zM6.5 15c-.277 0-.5.223-.5.5v3c0 .277.223.5.5.5h3c.277 0 .5-.223.5-.5v-3c0-.277-.223-.5-.5-.5h-3zm7 1a.499.499 0 1 0 0 1h3a.499.499 0 1 0 0-1h-3zm0 2a.499.499 0 1 0 0 1h3a.499.499 0 1 0 0-1h-3z"/></svg>
